X:36
T: Der Muskatbaum
N: Q2130B
O: Mitteleuropa, Deutschland (DDR) , Lausitz; sorbisch
N: Sorbische Fassung der Ballade.
R: Ballade, Werbung, Standesunterschied
M: 3/4
L: 1/8
K: C
G2 | c4c2 | B2A2G2 | A4B2 | c4
B2 | A2B2c2 | d4B2 | c2B2A2 | G4
G2 | c4G2 | A4FD | G2G2F2 | E4
D2 | E4A2 | G4G2 | F2E2D2 | C4
